!!!COM: Palestrina, Giovanni Perluigi da
!!!OPR: Missa Sicut lilium inter spinas
!!!OTL: Sanctus
**kern	**kern	**kern	**kern	**kern
*Ibass	*Itenor	*Itenor	*Icalto	*Icant
!Bassus	!Tenor 2	!Tenor 1	!Altus	!Cantus
*clefF4	*clefGv2	*clefGv2	*clefG2	*clefG2
*k[]	*k[]	*k[]	*k[]	*k[]
*A:aeo	*A:aeo	*A:aeo	*A:aeo	*A:aeo
*M4/2	*M4/2	*M4/2	*M4/2	*M4/2
=1	=1	=1	=1	=1
0r	0r	0r	1a	0r
.	.	.	1b-	.
=2	=2	=2	=2	=2
0r	0r	0r	1.a	1ee
.	.	.	.	1ff
.	.	.	2f	.
=3	=3	=3	=3	=3
0r	0r	0r	2a	1.ee
.	.	.	2.cc	.
.	.	.	4b-	.
.	.	.	2a	2cc
=4	=4	=4	=4	=4
0r	0r	0r	2g	2dd
.	.	.	2a	2.ff
.	.	.	1b-	.
.	.	.	.	4ee
.	.	.	.	2dd
=5	=5	=5	=5	=5
1A	0r	0r	2.a	2cc
.	.	.	.	2.ee
.	.	.	4g	.
1B-	.	.	2f	.
.	.	.	.	4dd
.	.	.	4e	[2dd
.	.	.	4d	.
=6	=6	=6	=6	=6
1.A	0r	1e	1a	2dd]
.	.	.	.	2cc
.	.	1f	2r	2.a
2F	.	.	[2cc	.
.	.	.	.	4b
=7	=7	=7	=7	=7
2A	0r	1.e	4cc]	2.cc
.	.	.	4b-	.
2.c	.	.	2a	.
.	.	.	.	4dd
.	.	.	2g	1ee
4B-	.	.	.	.
2A	.	2c	2a	.
=8	=8	=8	=8	=8
2G	0r	2d	2b-	2r
2A	.	2.f	2a	2cc
1B-	.	.	1d	2dd
.	.	4e	.	.
.	.	[2d	.	[2ff
=9	=9	=9	=9	=9
1A	1e	4d]	0a	4ff]
.	.	4c#	.	4ee
.	.	2c#	.	2.ee
1D	1f	1d	.	.
.	.	.	.	4dd
.	.	.	.	[2dd
=10	=10	=10	=10	=10
0r	1.e	0A	2.a	2dd]
.	.	.	.	4cc
.	.	.	4g	4b
.	.	.	4a	4cc
.	.	.	4b	4dd
.	2c	.	2cc	2ee
=11	=11	=11	=11	=11
0r	2d	0r	4b	4dd
.	.	.	4a	4cc
.	2f	.	1a	4b
.	.	.	.	4a
.	2.e	.	.	2b
.	.	.	2g#	[2ee
.	4d	.	.	.
=12	=12	=12	=12	=12
0r	4c	1e	[0a	4ee]
.	4B	.	.	4dd
.	2A	.	.	4cc
.	.	.	.	4b
.	1d	1f	.	2a
.	.	.	.	[2dd
=13	=13	=13	=13	=13
1r	1A	1.e	0a]	2dd]
.	.	.	.	4cc
.	.	.	.	4b
1A	1r	.	.	4cc
.	.	.	.	4b
.	.	2c	.	4a
.	.	.	.	4g
=14	=14	=14	=14	=14
1B-	1r	1d	2r	2f
.	.	.	1d	2g
[1A	1e	2e	.	1a
.	.	2A	4c	.
.	.	.	4B	.
=15	=15	=15	=15	=15
2A]	1f	1.a	2c	0r
2F	.	.	4A	.
.	.	.	4B	.
2A	[1e	.	4c	.
.	.	.	4d	.
[2c	.	4g	4e	.
.	.	4f	4f	.
=16	=16	=16	=16	=16
4c]	2e]	2e	2g	1r
4B-	.	.	.	.
2A	2c	2f	2a	.
2G	2d	2g	2b-	2r
2A	[2f	4f	2a	2cc
.	.	4e	.	.
=17	=17	=17	=17	=17
1B-	4f]	1d	2.f	2dd
.	4e	.	.	.
.	2d	.	.	1ff
.	.	.	4g	.
[1A	2.c#	2r	[1a	.
.	.	2e	.	4ee
.	4d	.	.	4dd
=18	=18	=18	=18	=18
0A]	2e	2A	0a]	2cc#
.	2f	2.a	.	1dd
.	1e	.	.	.
.	.	4g	.	.
.	.	2e	.	2cc#
=19	=19	=19	=19	=19
2r	2d	2f	2r	1dd
1d	1f	2d	1a	.
.	.	1A	.	1r
2c#	2e	.	2a	.
=20	=20	=20	=20	=20
1d	1f#	0r	1a	2r
.	.	.	.	2.dd
1G	1g	.	1b-	.
.	.	.	.	4dd
.	.	.	.	2dd
=21	=21	=21	=21	=21
1A	2e	0r	1a	2cc
.	1f	.	.	2cc
2c	.	.	2g	2.cc
2c	2e	.	2g	.
.	.	.	.	4cc
=22	=22	=22	=22	=22
4F	1f	2r	2f	1a
4G	.	.	.	.
4A	.	1a	1cc	.
4B	.	.	.	.
4c	1r	.	.	[1ee
4d	.	.	.	.
2e	.	2g#	2b	.
=23	=23	=23	=23	=23
1A	2r	1a	2.cc	2ee]
.	1a	.	.	2ee
.	.	.	4a	.
1r	.	1e	1b	[1ee
.	2g#	.	.	.
=24	=24	=24	=24	=24
0r	1a	1A	4cc	1ee]
.	.	.	4b	.
.	.	.	4a	.
.	.	.	4g	.
.	1d	2a	4f	1ff
.	.	.	4e	.
.	.	2f	2d	.
=25	=25	=25	=25	=25
0r	2e	0g	2c	1ee
.	2c	.	1cc	.
.	1G	.	.	2dd
.	.	.	2b	2dd
=26	=26	=26	=26	=26
1F	1c	2r	2cc	[0cc
.	.	2f	2a	.
2F	1r	2f	2a	.
2F	.	2f	2a	.
=27	=27	=27	=27	=27
1c	2r	1e	1g	1cc]
.	2c	.	.	.
2A	2c	2e	2a	1r
2A	2c	[2a	[2cc	.
=28	=28	=28	=28	=28
1d	1f	2a]	2cc]	1r
.	.	4g	2b	.
.	.	4f	.	.
1c	2e	1g	1cc	2r
.	2e	.	.	2cc
=29	=29	=29	=29	=29
0r	2.a	2.f	2r	2cc
.	.	.	2a	2cc
.	4g	4e	.	.
.	4f	1d	2a	1ff
.	4e	.	.	.
.	2f	.	2a	.
=30	=30	=30	=30	=30
0r	4g	1c	1cc	2ee
.	4f	.	.	.
.	4e	.	.	4gg
.	4d	.	.	4ff
.	4c	1r	2cc	4ee
.	4d	.	.	4dd
.	4e	.	2g	[2cc
.	4c	.	.	.
=31	=31	=31	=31	=31
1r	1d	2r	2a	2cc]
.	.	2.G	1g	4b
.	.	.	.	4a
2r	1g	.	.	2b
.	.	4G	.	.
[2C	.	2G	[2e	2cc
=32	=32	=32	=32	=32
4C]	2r	2.c	4e]	1g
4C	.	.	4e	.
2C	2.c	.	2e	.
.	.	4B	.	.
2.F	.	4A	2.a	1r
.	4c	4G	.	.
.	2c	2A	.	.
4E	.	.	4g	.
=33	=33	=33	=33	=33
4D	1f	1d	4f	0r
4E	.	.	4g	.
4F	.	.	4a	.
4G	.	.	4b	.
1A	4e	1c	1cc	.
.	4d	.	.	.
.	4e	.	.	.
.	4f#	.	.	.
=34	=34	=34	=34	=34
1G	1g	2e	1b	2r
.	.	2d	.	2.g
1c	2r	1e	2.cc	.
.	.	.	.	4g
.	[2c	.	.	2g
.	.	.	4cc	.
=35	=35	=35	=35	=35
0F	4c]	1f	2.a	2.cc
.	4c	.	.	.
.	2c	.	.	.
.	.	.	4b	4b
.	1f	2r	2cc	4a
.	.	.	.	4b
.	.	2a	2a	4cc
.	.	.	.	4dd
=36	=36	=36	=36	=36
1r	2e	2a	1b	2.ee
.	2e	2g#	.	.
.	.	.	.	4dd
2r	4f	4a	1a	2cc
.	4e	4g	.	.
2D	4d	4f	.	2dd
.	4c#	4e	.	.
=37	=37	=37	=37	=37
4D	1d	1f	0r	1a
4E	.	.	.	.
4F	.	.	.	.
4G	.	.	.	.
2A	2c#	2e	.	1r
2B-	2d	[2d	.	.
=38	=38	=38	=38	=38
2G	2e	2d]	2r	0r
2A	1f	2c#	2a	.
1B-	.	1d	2a	.
.	4e	.	2g	.
.	4d	.	.	.
=39	=39	=39	=39	=39
2A	2c#	2e	4a	1r
.	.	.	4g	.
2D	2.d	2d	4f	.
.	.	.	4e	.
4D	.	1a	1f	2r
4E	4c	.	.	.
4F	4A	.	.	2a
4G	4B	.	.	.
=40	=40	=40	=40	=40
2.A	4c	0r	1.e	4a
.	4d	.	.	4b
.	2e	.	.	4cc
4B	.	.	.	4dd
2c	2A	.	.	2ee
[2d	2a	.	2d	2ff
=41	=41	=41	=41	=41
2d]	2f	0r	1a	2dd
2c#	2e	.	.	2ee
1d	2d	.	2r	2.ff
.	[2f	.	2d	.
.	.	.	.	4ee
=42	=42	=42	=42	=42
1B-	2f]	1r	4d	1dd
.	.	.	4e	.
.	2d	.	4f	.
.	.	.	4g	.
1A	1e	2r	2.a	1cc
.	.	2A	.	.
.	.	.	4b	.
=43	=43	=43	=43	=43
0r	2r	4A	1cc	1ee
.	.	4B	.	.
.	2A	4c	.	.
.	.	4d	.	.
.	4A	2.e	1cc	[1ee
.	4B	.	.	.
.	4c	.	.	.
.	4d	4f	.	.
=44	=44	=44	=44	=44
0r	2e	2g	2b	2ee]
.	2f	1a	2a	2cc
.	2d	.	1b	2ff
.	2e	2g#	.	2ee
=45	=45	=45	=45	=45
2r	0f	4a	0a	2cc
.	.	4g	.	.
2D	.	4f	.	2dd
.	.	4e	.	.
4D	.	1d	.	2r
4E	.	.	.	.
4F	.	.	.	2a
4G	.	.	.	.
=46	=46	=46	=46	=46
2.A	2e	1c	1r	4a
.	.	.	.	4b
.	2.a	.	.	4cc
4B	.	.	.	4dd
2c	.	2A	[1a	2ee
.	4g	.	.	.
[2d	[2f	2d	.	2ff
=47	=47	=47	=47	=47
2d]	2f]	2f	1a]	2dd
2c#	2e	2.a	.	2ee
1d	2.d	.	1a	4ff
.	.	4g	.	4ee
.	.	[2f	.	4dd
.	4e	.	.	4cc#
=48	=48	=48	=48	=48
0D	0f	4f]	0a	0dd
.	.	4e	.	.
.	.	4d	.	.
.	.	4c#	.	.
.	.	1d	.	.
=49	=49	=49	=49	=49
0A	0e	0c#	0a	0ee
==	==	==	==	==
*-	*-	*-	*-	*-
!!!CDT: 1525/^1526/-1594/2/2
!!!OCY: Italia
!!!AGN: Mass (Parody)
!!!AST: renaissance, vocal
!!!ASW: Motet 1569 (Palestrina)
!!!PWK: Masses, Book 5
!!!RNB: Cadence finals: D
!!!YOR: Le Opere Complete, v. 15, p. 130
!!!YOO: Rome, Italy: Fratelli Scalera
!!!END: 1992//
!!!EED: John Miller
!!!YEC: Copyright 2000, John Miller
!!!YEN: United States of America
!!!YEM: Rights to all derivative electronic formats reserved.
!!!YEM: Refer to licensing agreement for further details.
!!!YEM: This file must be accompanied by the licensing agreement.
!!!YEM: A copy of the licensing agreement may be found at http://www.music-cog.ohio-state.edu/HumdrumDatabases/Palestrina/license.txt
!!!EMD: converted to Humdrum by Bret Aarden
